Adwaita++/mimetypes/16/text-x-emacs-lisp.svg

<svg height="16" viewBox="0 0 16 16" width="16" xmlns="http://www.w3.org/2000/svg">
  <path d="m3.128972 15.110594s.953861.448702 2.223446.607003c.514149.06413 2.470325.288208 3.970235.282288 0 0 1.826817.001644 2.835162-.14109 1.055156-.149858 1.652839-.341158 1.985446-.722877.00877-.09099.160604-.387639-.249511-.673764-1.048576-.73143-2.404-.931606-5.036901-1.556917-2.911461-.732086-3.826185-1.433038-4.260855-1.940171-.412195-.508448.122015-1.564261 2.468023-2.082247 1.187804-.289084 5.36589-.439053 5.36589-.439053-1.269256-1.007578-3.406206-2.714902-3.893167-3.098486-.427215-.336553-1.115559-.852894-1.189558-1.314312-.099869-.44925.607222-.665543.981596-.690428 1.206113-.083207 2.853251.235807 4.317204.526975.735923.146351.865173.124755.865173.124755 1.048029.04988 2.071613-.676616 2.029954-1.832956-.008332-1.172894-1.389297-2.113381-2.687166-2.154491-1.312888-.004823-4.424088-.004823-4.424088-.004823 3.510351.723645 4.274338 1.088701 4.457414 1.511202.108531.249729-.180445.497814-1.14746.449359-1.053401-.05273-3.21162-.307832-3.21162-.307832-2.054182-.316052-3.307542-.615552-3.931536.19963-.407592.532566.058211 1.181336.241287 1.563823.815184 1.422515 2.047057 2.39841 2.9415 3.086207.336664.258718 1.364194.831846 1.364194.831846-3.19419-.873504-5.917313-.382706-7.531126.465804-1.854991 1.098019-1.537622 2.950926 1.405851 4.683245 1.738567 1.023254 2.781883 1.51471 5.628337 1.8642 1.663802.265296 2.000684.373827 1.988077.512394-.017869.194916-2.058348.268804-2.594641.305859-1.364631.09406-4.893839-.054266-4.911488-.054266z" fill="#474747"/>
</svg>

<svg xmlns="http://www.w3.org/2000/svg" style="isolation:isolate" width="16" height="16" viewBox="0 0 16 16">
 <defs>
  <style id="current-color-scheme" type="text/css">
   .ColorScheme-Text { color:#474747; } .ColorScheme-Highlight { color:#5294e2; }
  </style>
  <linearGradient id="arrongin" x1="0%" x2="0%" y1="0%" y2="100%">
   <stop offset="0%" style="stop-color:#dd9b44"/>
   <stop offset="100%" style="stop-color:#ad6c16"/>
  </linearGradient>
  <linearGradient id="aurora" x1="0%" x2="0%" y1="0%" y2="100%">
   <stop offset="0%" style="stop-color:#09D4DF"/>
   <stop offset="100%" style="stop-color:#9269F4"/>
  </linearGradient>
  <linearGradient id="fitdance" x1="0%" x2="0%" y1="0%" y2="100%">
   <stop offset="0%" style="stop-color:#1AD6AB"/>
   <stop offset="100%" style="stop-color:#329DB6"/>
  </linearGradient>
  <linearGradient id="oomox" x1="0%" x2="0%" y1="0%" y2="100%">
   <stop offset="0%" style="stop-color:#efefe7"/>
   <stop offset="100%" style="stop-color:#8f8f8b"/>
  </linearGradient>
  <linearGradient id="rainblue" x1="0%" x2="0%" y1="0%" y2="100%">
   <stop offset="0%" style="stop-color:#00F260"/>
   <stop offset="100%" style="stop-color:#0575E6"/>
  </linearGradient>
  <linearGradient id="sunrise" x1="0%" x2="0%" y1="0%" y2="100%">
   <stop offset="0%" style="stop-color:#FF8501"/>
   <stop offset="100%" style="stop-color:#FFCB01"/>
  </linearGradient>
  <linearGradient id="telinkrin" x1="0%" x2="0%" y1="0%" y2="100%">
   <stop offset="0%" style="stop-color:#b2ced6"/>
   <stop offset="100%" style="stop-color:#6da5b7"/>
  </linearGradient>
  <linearGradient id="60spsycho" x1="0%" x2="0%" y1="0%" y2="100%">
   <stop offset="0%" style="stop-color:#df5940"/>
   <stop offset="25%" style="stop-color:#d8d15f"/>
   <stop offset="50%" style="stop-color:#e9882a"/>
   <stop offset="100%" style="stop-color:#279362"/>
  </linearGradient>
  <linearGradient id="90ssummer" x1="0%" x2="0%" y1="0%" y2="100%">
   <stop offset="0%" style="stop-color:#f618c7"/>
   <stop offset="20%" style="stop-color:#94ffab"/>
   <stop offset="50%" style="stop-color:#fbfd54"/>
   <stop offset="100%" style="stop-color:#0f83ae"/>
  </linearGradient>
  <linearGradient id="cyberneon" x1="0%" x2="0%" y1="0%" y2="100%">
   <stop offset="0" style="stop-color:#0abdc6"/>
   <stop offset="1" style="stop-color:#ea00d9"/>
  </linearGradient>
 </defs>
 <path style="fill:currentColor" class="ColorScheme-Text" d="M 3.128972 15.110594 C 3.128972 15.110594 4.082833 15.559296 5.352418 15.717597 C 5.866567 15.781727 7.822743 16.005805 9.322653 15.999885 C 9.322653 15.999885 11.14947 16.001529 12.157815 15.858795 C 13.212971 15.708937 13.810654 15.517637 14.143261 15.135918 C 14.152031 15.044928 14.303865 14.748279 13.89375 14.462154 C 12.845174 13.730724 11.48975 13.530548 8.856849 12.905237 C 5.945388 12.173151 5.030664 11.472199 4.595994 10.965066 C 4.183799 10.456618 4.718009 9.400805 7.064017 8.882819 C 8.251821 8.593735 12.429907 8.443766 12.429907 8.443766 C 11.160651 7.436188 9.023701 5.728864 8.53674 5.34528 C 8.109525 5.008727 7.421181 4.492386 7.347182 4.030968 C 7.247313 3.581718 7.954404 3.365425 8.328778 3.34054 C 9.534891 3.257333 11.182029 3.576347 12.645982 3.867515 C 13.381905 4.013866 13.511155 3.99227 13.511155 3.99227 C 14.559184 4.04215 15.582768 3.315654 15.541109 2.159314 C 15.532777 0.98642 14.151812 0.045933 12.853943 0.004823 C 11.541055 0 8.429855 0 8.429855 0 C 11.940206 0.723645 12.704193 1.088701 12.887269 1.511202 C 12.9958 1.760931 12.706824 2.009016 11.739809 1.960561 C 10.686408 1.907831 8.528189 1.652729 8.528189 1.652729 C 6.474007 1.336677 5.220647 1.037177 4.596653 1.852359 C 4.189061 2.384925 4.654864 3.033695 4.83794 3.416182 C 5.653124 4.838697 6.884997 5.814592 7.77944 6.502389 C 8.116104 6.761107 9.143634 7.334235 9.143634 7.334235 C 5.949444 6.460731 3.226321 6.951529 1.612508 7.800039 C -0.242483 8.898058 0.074886 10.750965 3.018359 12.483284 C 4.756926 13.506538 5.800242 13.997994 8.646696 14.347484 C 10.310498 14.61278 10.64738 14.721311 10.634773 14.859878 C 10.616904 15.054794 8.576425 15.128682 8.040132 15.165737 C 6.675501 15.259797 3.146293 15.111471 3.128644 15.111471 L 3.128972 15.110594 Z"/>
</svg>
